packages/tokens/icons/qA/size24Px.svg

<svg viewBox="0 0 24 24" fill="none" xmlns="http://www.w3.org/2000/svg" width="1em" height="1em"><path d="M10.9565 14.5V18.5C10.9565 19.6046 11.852 20.5 12.9565 20.5H19.946C20.2039 20.5 20.4518 20.5996 20.6379 20.778L21.1754 21.2931C21.3139 21.4259 21.4985 21.5 21.6904 21.5C22.1015 21.5 22.4348 21.1667 22.4348 20.7556V14.5C22.4348 13.3954 21.5394 12.5 20.4348 12.5L12.9565 12.5C11.8519 12.5 10.9565 13.3954 10.9565 14.5Z" stroke="currentColor"/><path d="M17.2174 9V4.5C17.2174 3.39543 16.322 2.5 15.2174 2.5L4.49999 2.5C3.39542 2.5 2.49998 3.39543 2.49998 4.5V12.2153C2.49998 12.9248 3.07516 13.5 3.78467 13.5V13.5C4.2294 13.5 4.6425 13.27 4.87673 12.8919L5.44587 11.9733C5.6282 11.679 5.94976 11.5 6.29594 11.5H7.49998" stroke="currentColor" stroke-linecap="round"/></svg>

<svg xmlns="http://www.w3.org/2000/svg" fill="none" viewBox="0 0 24 24" width="1em" height="1em"><path stroke="currentColor" d="M10.957 14.5v4a2 2 0 0 0 2 2h6.989a1 1 0 0 1 .692.278l.537.515a.744.744 0 0 0 1.26-.537V14.5a2 2 0 0 0-2-2h-7.478a2 2 0 0 0-2 2Z"/><path stroke="currentColor" stroke-linecap="round" d="M17.217 9V4.5a2 2 0 0 0-2-2H4.5a2 2 0 0 0-2 2v7.715c0 .71.575 1.285 1.285 1.285v0c.444 0 .857-.23 1.092-.608l.569-.919a1 1 0 0 1 .85-.473H7.5"/></svg>
